X: 204
T: Miss Strong's Jig
C: William Shepherd (17??-1812)
R: jig
B: William Shepherd "2nd Collection" 1800 p.20 #4
F: http://imslp.org/wiki/File:PMLP73094-Shepherd_Collections_HMT.pdf
Z: 2012 John Chambers <jc:trillian.mit.edu>
M: 6/8
L: 1/8
K: G
c |\
(B/c/d).c BGD | B,DG TB2d | c2A A>BG | F>AA A>dc |\
(B/c/d).c BGD | B,>DG TB2d | Tc>Bc A>dc | BGG TG2 :|
d |\
Tg>fg d>gd | B>dB G>Bd | Tg>fg e>fg | (f/g/a).f d>ef |\
Tg>fg d>gd | (B/c/d).B G>Bd | Tc>Bc A>dc | BGG TG2 ||
d |\
Tg>fg d>gd | BdB GBd | Tg>fg efg | (f/g/a).f def |\
Tg>fg f>df | e>ce dBG | Tc>Bc Adc | B>GTG G2 |]
